X:1078
T:Salt River Reel
R:reel
S:Magnus Norrman
O:American
Z:id:hn-reel-1078
M:C|
L:1/8
K:A
cB | A2EA cBcB | A2af edcB | AEAB cBAc | BGEG BdcB |
A2AB cBcB | A2af edcB | AEAB cABA | FAAB A2 :|
|: ag | f2fe fgag | fec2 e3c | B2AB cABA | BcAc B2ag |
f2fe fgag | fec2 e3c | B2AB cABA | FAAB A2 :|

